; HEADER_BLOCK_START
; generated by OrcaSlicer 2.3.0 on 2025-08-12 at 23:01:43
; total layer number: 28
;_GP_TOTAL_LAYER_NUMBER_PLACEHOLDER
; filament_density: 1.27
; filament_diameter: 1.75
; max_z_height: 6.95
; HEADER_BLOCK_END

; THUMBNAIL_BLOCK_START

;
; THUMBNAIL_BLOCK_END

; THUMBNAIL_BLOCK_START

;
; THUMBNAIL_BLOCK_END

; external perimeters extrusion width = 0.50mm
; perimeters extrusion width = 0.50mm
; infill extrusion width = 0.55mm
; solid infill extrusion width = 0.50mm
; top infill extrusion width = 0.50mm
; first layer extrusion width = 0.60mm

; external perimeters extrusion width = 0.50mm
; perimeters extrusion width = 0.50mm
; infill extrusion width = 0.55mm
; solid infill extrusion width = 0.50mm
; top infill extrusion width = 0.50mm
; first layer extrusion width = 0.60mm

; EXECUTABLE_BLOCK_START
EXCLUDE_OBJECT_DEFINE NAME=lid_2_.step_id_0_copy_0 CENTER=90.3341,93.9983 POLYGON=[[1.08409,161.377],[1.08409,38.3696],[1.08979,38.2389],[1.10688,38.1092],[1.1352,37.9814],[1.17455,37.8566],[1.22463,37.7357],[1.28505,37.6196],[1.35536,37.5093],[1.43502,37.4054],[1.52343,37.309],[24.6447,14.1876],[24.7412,14.0992],[24.845,14.0196],[24.9554,13.9493],[25.0715,13.8889],[25.1924,13.8388],[25.3172,13.7994],[25.4449,13.7711],[25.5747,13.754],[25.7054,13.7483],[175.963,13.7483],[176.094,13.754],[176.223,13.7711],[176.351,13.7994],[176.476,13.8388],[176.597,13.8889],[176.713,13.9493],[176.823,14.0196],[176.927,14.0992],[177.023,14.1876],[179,16.1644],[179.145,16.309],[179.19,16.3562],[179.233,16.4054],[179.274,16.4565],[179.282,16.467],[179.313,16.5093],[179.349,16.5637],[179.383,16.6196],[179.415,16.677],[179.433,16.7133],[179.444,16.7357],[179.47,16.7956],[179.494,16.8566],[179.515,16.9186],[179.533,16.9814],[179.549,17.045],[179.561,17.1092],[179.566,17.1411],[179.571,17.1738],[179.578,17.2389],[179.583,17.3042],[179.584,17.3696],[179.584,161.377],[179.578,161.508],[179.561,161.637],[179.533,161.765],[179.494,161.89],[179.444,162.011],[179.383,162.127],[179.313,162.237],[179.233,162.341],[179.145,162.438],[177.023,164.559],[176.976,164.604],[176.927,164.647],[176.876,164.688],[176.865,164.696],[176.823,164.727],[176.769,164.763],[176.713,164.797],[176.655,164.829],[176.619,164.847],[157.184,174.248],[23.4841,174.248],[4.07148,164.858],[3.95541,164.797],[3.84504,164.727],[3.74122,164.647],[3.64475,164.559],[3.50018,164.414],[1.52343,162.438],[1.47817,162.39],[1.43502,162.341],[1.39406,162.29],[1.38619,162.28],[1.35536,162.237],[1.319,162.183],[1.28505,162.127],[1.25357,162.07],[1.23537,162.033],[1.22463,162.011],[1.19827,161.951],[1.17455,161.89],[1.15352,161.828],[1.1352,161.765],[1.11964,161.702],[1.10688,161.637],[1.1017,161.605],[1.09692,161.573],[1.08979,161.508],[1.08551,161.442],[1.08409,161.377]]
M73 P0 R76
M73 C70
;TYPE:Custom
BED_MESH_PROFILE LOAD=default
G28
SET_GCODE_OFFSET Z=0
G1 Z25 F600
M190 S35
M109 S35

G90
G21
M83 ; use relative distances for extrusion
; Filament gcode
SET_PRESSURE_ADVANCE ADVANCE=0.014; Override pressure advance value
M106 S0
;LAYER_CHANGE
;Z:0.2
;HEIGHT:0.2
;BEFORE_LAYER_CHANGE
;0.2
G92 E0

G1 E-.8 F1800
;AFTER_LAYER_CHANGE
;0.2
;_SET_FAN_SPEED_CHANGING_LAYER
SET_VELOCITY_LIMIT ACCEL=2000 ACCEL_TO_DECEL=1000
G1 Z.6 F30000
G1 X18.054 Y21.942
G1 Z.6
G1 Z.2
G1 E.8 F1800
SET_VELOCITY_LIMIT SQUARE_CORNER_VELOCITY=2
;TYPE:Skirt
;WIDTH:0.6
G1 F3000
G1 X24.857 Y15.15 E.43642
G1 X25.72 Y14.693 E.04435
G1 X26.584 Y14.555 E.03971
G1 X175.985 Y14.556 E6.78206
G1 X176.989 Y14.751 E.04641
M73 C69
G1 X177.371 Y14.934 E.01923
G1 X177.959 Y15.388 E.03373
G1 X178.383 Y15.936 E.03143
G1 X178.628 Y16.472 E.02676
G1 X178.779 Y17.37 E.04134
G1 X178.777 Y161.377 E6.53721
G1 X178.733 Y161.882 E.02304
G1 X178.579 Y162.41 E.02495
G1 X178.416 Y162.752 E.01718
G1 X177.944 Y163.373 E.03541
G1 X177.225 Y163.894 E.04034
G1 X158.221 Y173.606 E.96878
G1 X157.184 Y173.855 E.04841
G1 X23.484 Y173.855 E6.0693
G1 X22.447 Y173.605 E.04843
G1 X3.429 Y163.883 E.96958
G1 X2.709 Y163.358 E.04043
G1 X2.285 Y162.811 E.03144
G1 X2.04 Y162.275 E.02675
G1 X1.889 Y161.377 E.04134
G1 X1.891 Y39.248 E5.54402
G1 X1.95 Y38.68 E.02593
G1 X2.294 Y37.8 E.04289
G1 X2.715 Y37.258 E.03116
G1 X18.011 Y21.985 E.98124
G1 E-.2 F1800
;WIPE_START
G1 F3000
G1 X18.719 Y21.278 E-.6
;WIPE_END
EXCLUDE_OBJECT_START NAME=lid_2_.step_id_0_copy_0
G1 Z.6 F30000
G1 X162.518 Y91.683 Z.6
G1 Z.2
G1 E.8 F1800
;TYPE:Inner wall
G1 F3600
G1 X162.518 Y90.481 E.05456
G1 X163.627 Y90.481 E.05033
G1 X163.696 Y90.724 E.01148
G1 X163.233 Y91.008 E.02464
G1 X162.881 Y91.295 E.02062
G1 X162.518 Y91.683 E.0241
G1 E-.3 F1800
;WIPE_START
G1 F3600
G1 X162.518 Y90.683 E-.5
;WIPE_END
G1 Z.6 F30000
G1 X120.235 Y47.299 Z.6
G1 Z.2
G1 E.8 F1800
G1 F3600
G1 X120.12 Y47.299 E.00522
G1 X119.68 Y47.225 E.02027
G1 X119.116 Y47.002 E.02752
G1 X118.729 Y46.745 E.02109
G1 X118.305 Y46.311 E.02752
G1 X118.065 Y45.934 E.02027
G1 X117.892 Y45.523 E.02027
G1 X117.775 Y44.909 E.02835
G1 X117.814 Y44.286 E.02835
G1 X117.935 Y43.856 E.02027
G1 X118.125 Y43.452 E.02027
G1 X118.491 Y42.969 E.02752
G1 X118.829 Y42.677 E.02027
G1 X119.196 Y42.455 E.01945
G1 X119.611 Y42.291 E.02027
G1 X120.209 Y42.19 E.02752
G1 X120.673 Y42.209 E.02109
G1 X121.278 Y42.364 E.02835
G1 X121.825 Y42.665 E.02835
G1 X122.163 Y42.957 E.02027
G1 X122.436 Y43.287 E.01945
G1 X122.66 Y43.674 E.02027
G1 X122.847 Y44.251 E.02752
G1 X122.894 Y44.695 E.02027
G1 X122.866 Y45.14 E.02027
G1 X122.703 Y45.724 E.02752
G1 X122.496 Y46.12 E.02027
G1 X122.237 Y46.461 E.01945
G1 X121.924 Y46.755 E.01945
G1 X121.564 Y46.994 E.01964
G1 X121.131 Y47.182 E.02144
G1 X120.564 Y47.299 E.02626
G1 X120.235 Y47.299 E.01496
G1 X120.235 Y46.742 F30000
;TYPE:Outer wall
G1 F3600
G1 X120.167 Y46.742 E.0031
G1 X119.83 Y46.685 E.01549
G1 X119.375 Y46.505 E.02221
G1 X119.086 Y46.313 E.01578
G1 X118.744 Y45.963 E.02221
G1 X118.561 Y45.675 E.01549
G1 X118.429 Y45.361 E.01549
G1 X118.336 Y44.874 E.0225
G1 X118.367 Y44.379 E.0225
G1 X118.459 Y44.051 E.01549
G1 X118.604 Y43.742 E.01549
G1 X118.9 Y43.352 E.02221
G1 X119.158 Y43.129 E.01549
G1 X119.444 Y42.956 E.0152
G1 X119.762 Y42.83 E.01549
G1 X120.244 Y42.749 E.02221
G1 X120.591 Y42.763 E.01578
G1 X121.071 Y42.887 E.0225
G1 X121.505 Y43.125 E.0225
G1 X121.764 Y43.348 E.01549
G1 X121.977 Y43.606 E.0152
G1 X122.148 Y43.902 E.01549
G1 X122.299 Y44.367 E.02221
G1 X122.335 Y44.706 E.01549
G1 X122.313 Y45.047 E.01549
G1 X122.182 Y45.518 E.02221
G1 X122.024 Y45.821 E.01549
G1 X121.821 Y46.087 E.0152
G1 X121.577 Y46.317 E.0152
G1 X121.297 Y46.503 E.01527
G1 X120.962 Y46.648 E.01659
G1 X120.507 Y46.742 E.02107
G1 X120.235 Y46.742 E.01236
G1 E-.3 F1800
;WIPE_START
G1 F3600
G1 X120.167 Y46.742 E-.0341
G1 X119.83 Y46.685 E-.17062
G1 X119.375 Y46.505 E-.24459
G1 X119.291 Y46.449 E-.0507
;WIPE_END
G1 Z.6 F30000
G1 X171.263 Y35.518 Z.6
G1 Z.2
G1 E.8 F1800
;TYPE:Inner wall
G1 F3600
G1 X168.465 Y35.518 E.12698
G1 X168.389 Y35.746 E.0109
G1 X168.484 Y35.818 E.00541
G1 X168.921 Y36.319 E.03022
G1 X169.154 Y36.698 E.02017
G1 X169.319 Y37.07 E.01848
G1 X169.436 Y37.495 E.02003
G1 X169.49 Y37.916 E.01923
G1 X169.49 Y43.522 E.25452
G1 X169.437 Y43.936 E.01892
G1 X169.322 Y44.357 E.01981
G1 X169.068 Y44.897 E.02708
G1 X168.833 Y45.242 E.01898
G1 X168.557 Y45.554 E.01889
G1 X168.112 Y45.923 E.02626
G1 X167.747 Y46.14 E.01928
G1 X167.497 Y46.245 E.01228
G1 X167.552 Y46.513 E.01242
G1 X169.495 Y46.513 E.08821
G1 X169.49 Y59.524 E.59064
G1 X169.437 Y59.937 E.01887
G1 X169.329 Y60.347 E.01926
G1 X169.059 Y60.922 E.02882
G1 X168.653 Y61.456 E.03047
G1 X168.306 Y61.776 E.02144
G1 X167.918 Y62.044 E.0214
G1 X167.375 Y62.294 E.02713
G1 X166.957 Y62.405 E.01962
G1 X166.648 Y62.443 E.01414
G1 X166.667 Y62.757 E.01426
G1 X169.495 Y62.757 E.12836
G1 X169.49 Y75.768 E.59064
G1 X169.437 Y76.181 E.01887
G1 X169.329 Y76.591 E.01926
G1 X169.059 Y77.165 E.02882
G1 X168.653 Y77.7 E.03048
G1 X168.306 Y78.02 E.02144
G1 X167.918 Y78.288 E.0214
G1 X167.375 Y78.538 E.02713
G1 X166.957 Y78.649 E.01962
G1 X166.793 Y78.669 E.00749
G1 X166.813 Y78.983 E.01427
G1 X169.494 Y78.983 E.12173
G1 X169.494 Y82.874 E.17666
G1 X162.036 Y82.874 E.33859
G1 X162.036 Y86.59 E.16865
G1 X169.494 Y86.59 E.33859
G1 X169.494 Y90.481 E.17666
G1 X167.708 Y90.481 E.0811
G1 X167.649 Y90.742 E.01214
G1 X167.939 Y90.88 E.01457
G1 X168.484 Y91.293 E.03105
G1 X168.922 Y91.796 E.03028
G1 X169.159 Y92.182 E.02054
G1 X169.326 Y92.569 E.01916
G1 X169.437 Y92.975 E.01911
G1 X169.49 Y93.387 E.01887
G1 X169.49 Y99.02 E.25569
G1 X169.396 Y99.602 E.02678
G1 X169.264 Y99.993 E.01874
G1 X169.114 Y100.301 E.01555
G1 X168.926 Y100.598 E.01592
G1 X168.634 Y100.957 E.02101
G1 X168.142 Y101.385 E.02962
G1 X167.744 Y101.63 E.02123
G1 X167.169 Y101.855 E.02802
G1 X166.569 Y101.953 E.02756
G1 X165.123 Y101.965 E.06568
G1 X165.123 Y100.719 E.05657
G1 X164.76 Y101.107 E.0241
G1 X164.408 Y101.393 E.02062
G1 X164.035 Y101.622 E.01987
G1 X163.647 Y101.789 E.01916
G1 X163.227 Y101.904 E.01977
G1 X162.663 Y101.957 E.02572
G1 X161.089 Y101.953 E.07145
G1 X160.678 Y101.9 E.01881
G1 X160.257 Y101.785 E.01981
G1 X159.702 Y101.522 E.0279
G1 X159.157 Y101.108 E.03105
G1 X158.719 Y100.606 E.03027
G1 X158.487 Y100.227 E.02015
G1 X158.323 Y99.855 E.01845
G1 X158.206 Y99.429 E.02009
G1 X158.151 Y99.002 E.01953
G1 X158.147 Y93.553 E.24737
G1 X158.201 Y92.974 E.02638
G1 X158.385 Y92.386 E.02797
G1 X158.592 Y91.987 E.02041
G1 X158.987 Y91.466 E.02968
G1 X159.331 Y91.145 E.02135
G1 X159.715 Y90.873 E.02137
G1 X160.583 Y90.461 E.0436
G1 X159.708 Y90.057 E.04373
G1 X159.16 Y89.648 E.03109
G1 X158.719 Y89.145 E.03032
G1 X158.487 Y88.767 E.02017
G1 X158.323 Y88.394 E.01845
G1 X158.206 Y87.968 E.02009
G1 X158.151 Y87.541 E.01953
G1 X158.147 Y82.106 E.24671
G1 X158.17 Y81.72 E.01759
G1 X158.255 Y81.292 E.01978
G1 X158.477 Y80.72 E.02785
G1 X158.807 Y80.204 E.02781
G1 X159.22 Y79.764 E.02741
G1 X159.701 Y79.414 E.02698
G1 X160.097 Y79.214 E.02016
G1 X160.668 Y79.04 E.02711
G1 X160.856 Y79.016 E.00858
G1 X160.836 Y78.703 E.01426
G1 X158.147 Y78.704 E.1221
G1 X158.147 Y74.83 E.17586
G1 X165.605 Y74.83 E.3386
G1 X165.605 Y72.693 E.09702
G1 X158.147 Y72.693 E.33859
G1 X158.147 Y68.786 E.17736
G1 X165.605 Y68.786 E.33859
G1 X165.605 Y66.646 E.09713
G1 X158.147 Y66.646 E.33859
G1 X158.147 Y58.586 E.36587
G1 X165.605 Y58.586 E.3386
G1 X165.605 Y56.449 E.09702
G1 X158.147 Y56.449 E.33859
G1 X158.147 Y52.542 E.17736
G1 X165.605 Y52.542 E.33859
G1 X165.605 Y50.402 E.09713
G1 X158.147 Y50.402 E.33859
G1 X158.147 Y46.513 E.17654
G1 X160.104 Y46.513 E.08887
G1 X160.162 Y46.251 E.0122
G1 X159.708 Y46.041 E.02268
G1 X159.16 Y45.631 E.03109
G1 X158.719 Y45.129 E.03032
G1 X158.487 Y44.75 E.02017
G1 X158.323 Y44.378 E.01845
G1 X158.206 Y43.952 E.0201
G1 X158.151 Y43.525 E.01953
G1 X158.147 Y38.077 E.24728
G1 X158.202 Y37.498 E.02643
G1 X158.375 Y36.931 E.02689
G1 X158.591 Y36.512 E.02142
G1 X158.987 Y35.99 E.02973
G1 X159.331 Y35.67 E.02131
G1 X159.714 Y35.398 E.02134
G1 X160.256 Y35.14 E.02724
G1 X160.691 Y35.02 E.0205
G1 X161.255 Y34.967 E.0257
G1 X166.371 Y34.967 E.23225
G1 X166.772 Y34.991 E.01821
G1 X167.371 Y35.133 E.02799
G1 X167.897 Y35.384 E.02644
G1 X167.897 Y30.652 E.21482
G1 X158.147 Y30.652 E.44262
G1 X158.147 Y26.729 E.17807
G1 X167.897 Y26.729 E.44262
G1 X167.897 Y21.845 E.22172
G1 X171.82 Y21.845 E.17807
G1 X171.82 Y35.518 E.6207
G1 X171.263 Y35.518 E.02529
G1 E-.3 F1800
;WIPE_START
G1 F3600
G1 X170.263 Y35.518 E-.5
;WIPE_END
G1 Z.6 F30000
G1 X165.68 Y101.403 Z.6
G1 Z.2
G1 E.8 F1800
;TYPE:Outer wall
G1 F3600
G1 X165.68 Y98.619 E.12637
G1 X166.162 Y98.6 E.02193
G1 X166.162 Y93.778 E.21887
G1 X165.216 Y93.781 E.04297
G1 X165.216 Y98.803 E.22795
G1 X165.194 Y99.149 E.01577
G1 X165.085 Y99.626 E.02219
G1 X164.947 Y99.952 E.01608
G1 X164.642 Y100.417 E.02526
G1 X164.379 Y100.698 E.01747
G1 X164.085 Y100.938 E.01721
G1 X163.778 Y101.126 E.01639
G1 X163.462 Y101.262 E.01558
G1 X163.127 Y101.354 E.01579
G1 X162.638 Y101.4 E.0223
G1 X161.125 Y101.396 E.06866
G1 X160.788 Y101.353 E.01546
G1 X160.452 Y101.261 E.01581
G1 X159.993 Y101.043 E.02306
G1 X159.539 Y100.699 E.02584
G1 X159.169 Y100.275 E.02556
G1 X158.981 Y99.969 E.0163
G1 X158.85 Y99.668 E.01489
G1 X158.753 Y99.319 E.01646
G1 X158.708 Y98.966 E.01612
G1 X158.704 Y93.578 E.24458
G1 X158.75 Y93.084 E.02253
G1 X158.902 Y92.599 E.02309
G1 X159.064 Y92.286 E.01602
G1 X159.402 Y91.841 E.02536
G1 X159.683 Y91.578 E.01746
G1 X159.997 Y91.356 E.01747
G1 X160.457 Y91.138 E.02307
G1 X160.952 Y91.021 E.02313
G1 X161.324 Y91.001 E.01689
G1 X161.961 Y91 E.02894
G1 X161.961 Y93.766 E.12557
G1 X161.479 Y93.786 E.02193
G1 X161.479 Y98.604 E.21874
G1 X162.425 Y98.604 E.04297
G1 X162.426 Y93.583 E.22792
G1 X162.446 Y93.248 E.01524
G1 X162.561 Y92.759 E.02284
G1 X162.702 Y92.434 E.01605
G1 X162.999 Y91.984 E.02452
G1 X163.262 Y91.703 E.01744
G1 X163.556 Y91.464 E.01721
G1 X163.863 Y91.275 E.01639
G1 X164.179 Y91.139 E.01558
G1 X164.514 Y91.047 E.01579
G1 X165.003 Y91.001 E.0223
G1 X166.516 Y91.005 E.06866
G1 X166.853 Y91.048 E.01546
G1 X167.189 Y91.14 E.0158
G1 X167.648 Y91.358 E.02306
G1 X168.102 Y91.702 E.02584
G1 X168.472 Y92.127 E.02557
G1 X168.663 Y92.439 E.01662
G1 X168.799 Y92.754 E.01558
G1 X168.89 Y93.085 E.01556
G1 X168.933 Y93.423 E.01548
G1 X168.933 Y98.976 E.25207
G1 X168.854 Y99.468 E.02263
G1 X168.748 Y99.781 E.015
G1 X168.626 Y100.029 E.01255
G1 X168.473 Y100.272 E.01302
G1 X168.232 Y100.568 E.01734
G1 X167.811 Y100.935 E.02534
G1 X167.495 Y101.129 E.01686
G1 X167.021 Y101.314 E.0231
G1 X166.522 Y101.396 E.02294
G1 X165.68 Y101.403 E.03823
G1 E-.3 F1800
;WIPE_START
G1 F3600
G1 X165.68 Y100.403 E-.5
;WIPE_END
G1 Z.6 F30000
G1 X168.937 Y89.924 Z.6
G1 Z.2
G1 E.8 F1800
G1 F3600
G1 X161.287 Y89.924 E.3473
G1 X160.953 Y89.905 E.01517
G1 X160.46 Y89.791 E.02298
G1 X159.995 Y89.576 E.02324
G1 X159.54 Y89.236 E.02579
G1 X159.169 Y88.814 E.02552
G1 X158.981 Y88.508 E.01629
G1 X158.85 Y88.207 E.01489
G1 X158.753 Y87.858 E.01646
G1 X158.708 Y87.505 E.01612
G1 X158.704 Y82.123 E.24435
G1 X158.724 Y81.791 E.01508
G1 X158.792 Y81.449 E.01585
G1 X158.976 Y80.974 E.02312
G1 X159.249 Y80.548 E.02293
G1 X159.591 Y80.183 E.0227
G1 X159.992 Y79.89 E.02256
G1 X160.305 Y79.733 E.01591
G1 X160.785 Y79.587 E.02276
G1 X161.126 Y79.544 E.01561
G1 X162.029 Y79.54 E.04099
G1 X168.937 Y79.54 E.31361
G1 X168.937 Y82.317 E.12608
G1 X161.479 Y82.317 E.33859
G1 X161.479 Y87.147 E.21922
G1 X168.937 Y87.147 E.33859
G1 X168.937 Y89.924 E.12608
G1 E-.3 F1800
;WIPE_START
G1 F3600
G1 X167.937 Y89.924 E-.5
;WIPE_END
G1 Z.6 F30000
G1 X158.704 Y78.147 Z.6
G1 Z.2
G1 E.8 F1800
G1 F3600
G1 X158.704 Y75.387 E.12526
G1 X166.163 Y75.387 E.3386
G1 X166.162 Y72.136 E.1476
G1 X158.704 Y72.136 E.33859
G1 X158.704 Y69.343 E.12679
G1 X166.162 Y69.343 E.33859
G1 X166.162 Y66.089 E.14771
G1 X158.704 Y66.089 E.33859
G1 X158.704 Y63.314 E.12596
G1 X168.937 Y63.314 E.46456
G1 X168.933 Y75.733 E.56376
G1 X168.889 Y76.074 E.0156
G1 X168.803 Y76.4 E.01529
G1 X168.58 Y76.875 E.02385
G1 X168.239 Y77.323 E.02556
G1 X167.957 Y77.584 E.01744
G1 X167.641 Y77.802 E.01743
G1 X167.185 Y78.012 E.02276
G1 X166.851 Y78.101 E.01572
G1 X166.514 Y78.143 E.01539
G1 X158.704 Y78.147 E.35457
G1 E-.3 F1800
;WIPE_START
G1 F3600
G1 X158.704 Y77.147 E-.5
;WIPE_END
G1 Z.6 F30000
G1 X158.704 Y61.903 Z.6
G1 Z.2
G1 E.8 F1800
G1 F3600
G1 X158.704 Y59.143 E.12526
G1 X166.163 Y59.143 E.3386
G1 X166.162 Y55.892 E.1476
G1 X158.704 Y55.892 E.33859
G1 X158.704 Y53.099 E.12679
G1 X166.162 Y53.099 E.33859
G1 X166.162 Y49.845 E.14771
G1 X158.704 Y49.845 E.33859
G1 X158.704 Y47.07 E.12596
G1 X168.937 Y47.07 E.46456
G1 X168.933 Y59.489 E.56376
G1 X168.889 Y59.83 E.0156
G1 X168.803 Y60.156 E.01529
G1 X168.58 Y60.631 E.02385
G1 X168.239 Y61.079 E.02556
G1 X167.957 Y61.34 E.01744
G1 X167.641 Y61.558 E.01743
G1 X167.185 Y61.768 E.02276
G1 X166.851 Y61.857 E.01572
G1 X166.514 Y61.899 E.01538
G1 X158.704 Y61.903 E.35457
G1 E-.3 F1800
;WIPE_START
G1 F3600
G1 X158.704 Y60.903 E-.5
;WIPE_END
G1 Z.6 F30000
G1 X161.127 Y45.904 Z.6
G1 Z.2
G1 E.8 F1800
G1 F3600
G1 X160.79 Y45.862 E.0154
G1 X160.455 Y45.772 E.01573
G1 X159.995 Y45.56 E.02301
G1 X159.54 Y45.22 E.02579
